public/img/11.svg

<svg width="326" height="275" viewBox="0 0 326 275" fill="none" xmlns="http://www.w3.org/2000/svg">
<g opacity="0.7">
<g clip-path="url(#clip0)">
<mask id="mask0" mask-type="alpha" maskUnits="userSpaceOnUse" x="-64" y="-116" width="535" height="535">
<path fill-rule="evenodd" clip-rule="evenodd" d="M28.8481 126.281C26.0229 134.59 23.7069 143.048 21.8702 151.488L130.752 43.7545C128.73 43.723 126.707 43.6733 124.687 43.6236C121.389 43.5424 118.099 43.4615 114.832 43.4606L28.8481 126.281ZM37.8771 104.034L97.5553 44.6952C89.0749 46.1728 80.9875 49.295 73.6233 55.6553C58.5114 68.707 46.7242 85.5458 37.8771 104.034ZM142.5 43.5952L18.6551 169.469C17.8487 175.058 17.13 180.732 16.5408 186.44L164.907 38.9342C157.706 41.967 150.165 43.1771 142.5 43.5952ZM201.652 2.40193L270.194 -65.7426C267.128 -65.663 263.999 -65.2934 260.809 -64.6043C238.566 -59.7993 225.201 -37.128 211.45 -13.8015C208.244 -8.36329 205.017 -2.88944 201.652 2.40193ZM282.3 -64.5424L15.4869 198.774C15.0518 205.306 14.8241 211.831 14.8654 218.275L288.695 -62.6652C286.601 -63.4235 284.468 -64.0533 282.3 -64.5424ZM296.437 -59.2112L15.2684 230.162C15.4609 233.206 15.7251 236.219 16.0676 239.193L307.72 -51.7802C304.108 -54.6273 300.345 -57.1348 296.437 -59.2112ZM311.442 -48.6824L17.7172 250.062C18.5584 254.46 19.605 258.741 20.8819 262.873L322.765 -37.1859C319.192 -41.3237 315.415 -45.2005 311.442 -48.6824ZM331.782 -25.6547L23.7843 271.013C25.7212 275.758 28.021 280.255 30.7286 284.446L336.741 -18.3388C335.149 -20.8046 333.495 -23.25 331.782 -25.6547ZM339.859 -13.3567L37.8072 293.645C37.9521 293.803 38.0978 293.961 38.2443 294.118C40.339 296.364 42.5566 298.428 44.8848 300.322L347.211 -0.252032C346.84 -1.01778 346.452 -1.77711 346.047 -2.52976C344.119 -6.11074 342.056 -9.74075 339.859 -13.3567ZM350.298 7.35499L49.6159 303.836C53.9538 306.776 58.608 309.207 63.5111 311.183L352.268 14.4212C351.722 12.0224 351.071 9.66521 350.298 7.35499ZM353.839 23.4826L72.0377 314.103C74.6983 314.866 77.4148 315.516 80.1782 316.061L354.8 42.1234C354.836 35.7571 354.589 29.5178 353.839 23.4826ZM354.647 49.5407L90.7977 317.631C95.5381 318.114 100.375 318.334 105.266 318.325L353.481 71.5216C353.575 69.8912 353.673 68.2614 353.77 66.6336C354.113 60.896 354.455 55.1813 354.647 49.5407ZM352.724 91.2296L117.443 317.856C125.086 317.295 132.776 316.254 140.362 314.857L353.074 104.388C352.784 100.049 352.691 95.6546 352.724 91.2296ZM354.007 113.032L160.308 309.905C174.915 304.036 186.991 291.266 199.156 278.401C211.632 265.208 224.203 251.915 239.694 245.862L357.565 128.674C356.061 123.437 354.815 118.215 354.007 113.032ZM360.611 138.406L255.552 242.088C260.474 241.555 265.475 241.514 270.514 241.785L363.405 146.481C362.451 143.792 361.512 141.099 360.611 138.406ZM369.42 163.455L291.023 244.14C293.065 244.455 295.103 244.781 297.134 245.106C299.111 245.423 301.081 245.738 303.042 246.042L373.333 175.915C372.182 171.795 370.846 167.638 369.42 163.455ZM375.546 184.997L314.035 247.558C320.495 248.296 326.799 248.665 332.846 248.245L377.157 204.202C377.546 197.959 376.877 191.54 375.546 184.997Z" fill="white"/>
</mask>
<g mask="url(#mask0)">
<path d="M82.1657 64.6359H64.9707V38.7529H113.841V140.113H134.113V165.453H62.4367V140.113H82.1657V64.6359ZM168.247 64.6359H151.052V38.7529H199.922V140.113H220.194V165.453H148.518V140.113H168.247V64.6359Z" fill="white"/>
</g>
</g>
</g>
<defs>
<clipPath id="clip0">
<rect x="0.396484" y="0.218018" width="325.24" height="274.079" fill="white"/>
</clipPath>
</defs>
</svg>

<svg width="326" height="275" fill="none" xmlns="http://www.w3.org/2000/svg"><g clip-path="url(#clip0)" opacity=".7"><mask id="a" maskUnits="userSpaceOnUse" x="-64" y="-116" width="535" height="535"><path fill-rule="evenodd" clip-rule="evenodd" d="M28.848 126.281a231.068 231.068 0 00-6.978 25.207L130.752 43.755a672.583 672.583 0 01-6.065-.131c-3.298-.082-6.588-.163-9.855-.163l-85.984 82.82zm9.03-22.247l59.677-59.339c-8.48 1.478-16.568 4.6-23.932 10.96-15.112 13.052-26.899 29.89-35.746 48.379zM142.5 43.595L18.655 169.47a423.476 423.476 0 00-2.114 16.971L164.907 38.934c-7.201 3.033-14.742 4.243-22.407 4.661zm59.152-41.193l68.542-68.145a50.58 50.58 0 00-9.385 1.139c-22.243 4.805-35.608 27.476-49.359 50.802-3.206 5.439-6.433 10.913-9.798 16.204zM282.3-64.542L15.487 198.774c-.435 6.532-.663 13.057-.622 19.501l273.83-280.94a53.095 53.095 0 00-6.395-1.877zm14.137 5.33L15.268 230.163c.193 3.044.457 6.057.8 9.031L307.72-51.78c-3.612-2.847-7.375-5.355-11.283-7.431zm15.005 10.53L17.717 250.062c.841 4.398 1.888 8.679 3.165 12.811L322.765-37.186c-3.573-4.138-7.35-8.014-11.323-11.496zm20.34 23.027L23.784 271.013c1.937 4.745 4.237 9.242 6.945 13.433L336.74-18.339a193.701 193.701 0 00-4.959-7.316zm8.077 12.298L37.807 293.645c.145.158.29.316.437.473a66.152 66.152 0 006.64 6.204L347.212-.252a60.195 60.195 0 00-1.164-2.278 239.793 239.793 0 00-6.188-10.827zm10.439 20.712L49.616 303.836c4.338 2.94 8.992 5.371 13.895 7.347L352.268 14.421a74.03 74.03 0 00-1.97-7.066zm3.541 16.128L72.038 314.103a99.058 99.058 0 008.14 1.958L354.8 42.123c.036-6.366-.211-12.605-.961-18.64zm.808 26.058L90.797 317.63c4.741.483 9.578.703 14.469.694L353.481 71.522c.094-1.63.192-3.26.289-4.888.343-5.738.685-11.453.877-17.093zm-1.923 41.689L117.443 317.856c7.643-.561 15.333-1.602 22.919-2.999l212.712-210.469c-.29-4.339-.383-8.733-.35-13.158zm1.283 21.802L160.308 309.905c14.607-5.869 26.683-18.639 38.848-31.504 12.476-13.193 25.047-26.486 40.538-32.539l117.871-117.188c-1.504-5.237-2.75-10.459-3.558-15.642zm6.604 25.374L255.552 242.088c4.922-.533 9.923-.574 14.962-.303l92.891-95.304a473.55 473.55 0 01-2.794-8.075zm8.809 25.049l-78.397 80.685c2.042.315 4.08.641 6.111.966 1.977.317 3.947.632 5.908.936l70.291-70.127c-1.151-4.12-2.487-8.277-3.913-12.46zm6.126 21.542l-61.511 62.561c6.46.738 12.764 1.107 18.811.687l44.311-44.043c.389-6.243-.28-12.662-1.611-19.205z" fill="#fff"/></mask><g mask="url(#a)"><path d="M82.166 64.636H64.97V38.753h48.87v101.36h20.272v25.34H62.437v-25.34h19.729V64.636zm86.081 0h-17.195V38.753h48.87v101.36h20.272v25.34h-71.676v-25.34h19.729V64.636z" fill="#fff"/></g></g><defs><clipPath id="clip0"><path fill="#fff" d="M.396.218h325.24v274.079H.396z"/></clipPath></defs></svg>
